pix_core/t/assignroles.svg

<!DOCTYPE svg PUBLIC "-//W3C//DTD SVG 1.1//EN" "http://www.w3.org/Graphics/SVG/1.1/DTD/svg11.dtd" [
	<!ENTITY ns_flows "http://ns.adobe.com/Flows/1.0/">
]><svg xmlns="http://www.w3.org/2000/svg" width="12" height="12" viewBox="0 0 12 12" preserveAspectRatio="xMinYMid meet" overflow="visible"><path d="M5 9c0 1.2.6 2.3 1.4 3h-6.4v-3.6l1.7-.9c.5-.2.6-.8.3-1.2 0 0-.9-1.1-.9-2.5 0-2.1 1.3-3.8 2.9-3.8 1.6 0 2.9 1.7 2.9 3.8 0 1.4-.9 2.5-.9 2.5s0 .1 0 .1c-.6.7-1 1.6-1 2.6zm7-1h-2v-2h-2v2h-2v2h2v2h2v-2h2v-2z" fill="#999"/></svg>

<!DOCTYPE svg PUBLIC "-//W3C//DTD SVG 1.1//EN" "http://www.w3.org/Graphics/SVG/1.1/DTD/svg11.dtd" [
	<!ENTITY ns_flows "http://ns.adobe.com/Flows/1.0/">
]><svg xmlns="http://www.w3.org/2000/svg" width="12" height="12" viewBox="0 0 12 12" preserveAspectRatio="xMinYMid meet" overflow="visible"><path d="M5 9c0 1.2.6 2.3 1.4 3H0V8.4l1.7-.9c.5-.2.6-.8.3-1.2 0 0-.9-1.1-.9-2.5C1.1 1.7 2.4 0 4 0c1.6 0 2.9 1.7 2.9 3.8 0 1.4-.9 2.5-.9 2.5v.1C5.4 7.1 5 8 5 9zm7-1h-2V6H8v2H6v2h2v2h2v-2h2V8z" fill="#999"/></svg>
